src/assets/dark/IconCommentInactive.svg

<svg width="44" height="44" viewBox="0 0 44 44" fill="none" xmlns="http://www.w3.org/2000/svg">
<path fill-rule="evenodd" clip-rule="evenodd" d="M21.9683 43.5C33.8424 43.5 43.4683 33.8741 43.4683 22C43.4683 10.1259 33.8424 0.5 21.9683 0.5C10.0941 0.5 0.468262 10.1259 0.468262 22C0.468262 33.8741 10.0941 43.5 21.9683 43.5Z" fill="url(#paint0_linear)"/>
<path d="M31.0623 17.2318C30.1247 16.0796 28.8511 15.1696 27.2419 14.5018C25.6328 13.834 23.8747 13.5 21.9684 13.5C20.5465 13.5 19.1871 13.6972 17.8903 14.0917C16.5934 14.4861 15.4763 15.0192 14.5388 15.6909C13.6011 16.3627 12.8552 17.1614 12.3004 18.087C11.7456 19.0125 11.4683 19.9831 11.4683 20.9986C11.4683 22.1702 11.8217 23.268 12.5288 24.2913C13.2359 25.3144 14.2025 26.1738 15.4292 26.869C15.3432 27.1813 15.2416 27.4782 15.1244 27.7592C15.0072 28.0404 14.9018 28.2711 14.808 28.4507C14.7142 28.6304 14.5874 28.8297 14.4271 29.0483C14.267 29.267 14.146 29.4213 14.0639 29.5111C13.9819 29.6009 13.8472 29.7496 13.6596 29.9563C13.4722 30.1634 13.351 30.2981 13.2964 30.3607C13.2885 30.3644 13.2573 30.3998 13.2026 30.4661C13.148 30.5323 13.1206 30.5655 13.1206 30.5655L13.0502 30.6708C13.0111 30.7295 12.9936 30.7666 12.9974 30.7819C13.0014 30.7972 12.9936 30.8365 12.974 30.8989C12.9544 30.9615 12.9565 31.0084 12.9799 31.0398V31.0514C13.0113 31.1922 13.0796 31.3053 13.185 31.3911C13.2904 31.477 13.4097 31.5122 13.5424 31.4963C14.0504 31.4338 14.4956 31.3483 14.8784 31.2387C16.9253 30.7152 18.7223 29.7703 20.2691 28.4031C20.8549 28.4656 21.4213 28.4969 21.9682 28.4969C23.8744 28.4969 25.6324 28.1629 27.2417 27.4949C28.851 26.8271 30.1245 25.917 31.0619 24.7651C31.9995 23.6135 32.4683 22.3577 32.4683 20.9986C32.4683 19.6394 31.9996 18.3837 31.0623 17.2318Z" fill="white" fill-opacity="0.67"/>
<defs>
<linearGradient id="paint0_linear" x1="0.468263" y1="9.17608" x2="45.3146" y2="40.906" gradientUnits="userSpaceOnUse">
<stop stop-color="#3B3381"/>
<stop offset="1" stop-color="#322773"/>
</linearGradient>
</defs>
</svg>

<svg width="44" height="44" fill="none" xmlns="http://www.w3.org/2000/svg"><path fill-rule="evenodd" clip-rule="evenodd" d="M21.968 43.5c11.874 0 21.5-9.626 21.5-21.5S33.842.5 21.968.5.468 10.126.468 22s9.626 21.5 21.5 21.5z" fill="url(#paint0_linear)"/><path d="M31.062 17.232c-.937-1.152-2.21-2.062-3.82-2.73-1.61-.668-3.367-1.002-5.274-1.002-1.421 0-2.78.197-4.078.592-1.297.394-2.414.927-3.351 1.599-.938.672-1.684 1.47-2.239 2.396-.554.925-.832 1.896-.832 2.912 0 1.171.354 2.269 1.06 3.292.708 1.023 1.675 1.883 2.901 2.578-.086.312-.187.61-.305.89a9.092 9.092 0 01-.316.692c-.094.18-.22.379-.38.597-.161.219-.282.373-.364.463l-.404.445c-.188.207-.309.342-.364.405a.828.828 0 00-.093.105l-.082.1-.07.105c-.04.059-.057.096-.054.11a.31.31 0 01-.023.118c-.02.063-.018.11.006.14v.012c.031.141.1.254.205.34a.459.459 0 00.357.105 8.8 8.8 0 001.336-.257c2.047-.524 3.844-1.469 5.391-2.836.586.063 1.152.094 1.7.094 1.905 0 3.663-.334 5.273-1.002 1.609-.668 2.883-1.578 3.82-2.73.938-1.152 1.406-2.407 1.406-3.766 0-1.36-.468-2.615-1.406-3.767z" fill="#fff" fill-opacity=".67"/><defs><linearGradient id="paint0_linear" x1=".468" y1="9.176" x2="45.315" y2="40.906" gradientUnits="userSpaceOnUse"><stop stop-color="#3B3381"/><stop offset="1" stop-color="#322773"/></linearGradient></defs></svg>
